forward 100;
penup;
pendown;
turnleft 90;
color red;

repeat 4 {
forward 100;
turnleft 90;
}

// start with a file containing only comments

// then complete this file as the tests progress


// 這是一行註解

(* 這是一個
多行註解 *)

// 這是一行註解，應被忽略forward 100
(* 註解內的 forward 100 也應被忽略 *)

forward 100 + 1 * 0;